X:1
T:Title
%%score 1 { 2 | 3 }
L:1/8
Q:1/4=114
M:3/4
K:C
V:1 treble nm="Grand Piano, Soprano"
V:2 bass nm="Choir Pad, We Know Not the Hour"
V:3 bass 
V:1
 G2 [Ec]2 [Ec]2 | [Ec]2 [Ec]4 | [CE]>[CF] [B,G]2 [B,D]2 | [B,F]2 [B,F]2 [CE]2 | [EG]2 [DB]2 [DB]2 | %5
w: By~Franklin~Edson~Belden * *|||||
 [DB]2 [DB]4 | [B,D]>[CE] [DF]2 [^CE]2 | [DF]2 [FA]2 [EG]2 | [EG]2 [Ge]2 [Ge]2 | [Ge]2 [Ge]4 | %10
w: |||||
 [Gc]>[Gc] [Gc]2 [Gd]2 | [_Be]2 [Af]2 [FA]2 | [Ac]>[^Gd] [=Ge]4- | [Ge]2 [Fd]4 | [Fd]2 [Ec]4- | %15
w: |||||
 [Ec]6 | [FG]>[FG] [EG]4- | [EG]6 | [EG]>[EG] [Ec]2 [EG]2 | [EG]2 [Ec]2 [EG]2 | [FG]>[FG] [EG]4- | %21
w: ||||||
 [EG]6 | [EG]>[EG] [Fd]2 [FG]2 | [FG]>[FG] [Fd]2 [FG]2 | [FG]>[FG] [Ee]2 [Ge]2 | [Ge]2 [Ge]4 | %26
w: |||||
 [Gc]>[Gc] [Gc]2 [Gd]2 | [_Be]2 [Af]2 [FA]2 | [Ac]>[^Gd] [=Ge]4- | [Ge]2 [Fd]4 | [Fd]2 [Ec]4- | %31
w: |||||
 [Ec]6 |] %32
w: |
V:2
 G,2 G,2 G,2 | G,2 G,4 | G,>G, G,2 G,2 | G,2 G,2 G,2 | C2 G,2 G,2 | G,2 G,4 | G,>G, G,2 G,2 | %7
 G,2[K:treble] C2 C2 | C2 C2 C2 | C2 C4 | E>E C2 B,2 | C2 C2 C2 | C>C[K:bass] C4- | C2 G,4 | %14
 G,2 G,4- | G,6 | z2 z2[K:treble] C2 | C2 C4 | C>C G,2 C2 | C2 G,2 C2 | z2 z2 C2 | C2 C4 | %22
 C>C[K:bass] B,2 B,2 | B,>B, B,2 B,2 | B,>B,[K:treble] C2 C2 | C2 C4 | E>E C2 B,2 | C2 C2 C2 | %28
 C>C[K:bass] C4- | C2 G,4 | G,2 G,4- | G,6 |] %32
V:3
 z2 C,2 C,2 | C,2 C,4 | C,>C, G,,2 G,,2 | G,,2 G,,2 C,2 | C,2 z2 z2 | z6 | z6 | z2 C,2 C,2 | %8
 C,2 C,2 C,2 | C,2 C,4 | C,>C, E,2 D,2 | C,2 F,2 F,2 | F,>F, G,4- | G,2 G,,4 | G,,2 C,4- | C,6 | %16
 z2 z2 C,2 | C,2 C,4 | C,>C, C,2 C,2 | C,2 C,2 C,2 | z2 z2 C,2 | C,2 C,4 | z2 G,2 G,2 | %23
 G,>G, G,2 G,2 | G,>G, C,2 C,2 | C,2 C,4 | C,>C, E,2 D,2 | C,2 F,2 F,2 | F,>F, G,4- | G,2 G,,4 | %30
 G,,2 C,4- | C,6 |] %32

